X:1
T:Round the Corner
M:6/8
L:1/4
K:Bb
 d- c/2| B B/2 B F/2| G B/2 F3/2| F F/2 G F/2| G/2 B B- c/2| d d/2 d F/2|\
 G B/2 F3/2| F F/2 G F/2| G/2 B||

